src/assets/img/icons/logo.svg

<svg width="135" height="48" viewBox="0 0 135 48" fill="none" xmlns="http://www.w3.org/2000/svg">
<path d="M12.1213 20.784C9.92256 20.784 8.09473 18.9973 8.09473 16.7901C8.09473 14.6093 9.89607 12.7963 12.1213 12.7963C14.32 12.7963 16.1478 14.583 16.1478 16.7901C16.1478 18.9973 14.3465 20.784 12.1213 20.784Z" fill="#0FAFE9"/>
<path d="M41.7908 11.5349C41.7908 5.20254 36.5457 0 30.1615 0C23.7508 0 18.5322 5.20254 18.5322 11.5349V28.4038C18.5322 28.4038 41.7908 25.8288 41.7908 11.5349Z" fill="#0FAFE9"/>
<path d="M0 33.7666C0 38.1809 3.62918 41.8069 8.07957 41.8069C12.5299 41.8069 16.1591 38.2071 16.1591 33.7929V22.0477C16.1856 22.0477 0 23.8345 0 33.7666ZM8.07957 35.8949C6.91399 35.8949 5.96034 34.949 5.96034 33.7929C5.96034 32.6367 6.91399 31.6908 8.07957 31.6908C9.24514 31.6908 10.1988 32.6367 10.1988 33.7929C10.2253 34.949 9.27163 35.8949 8.07957 35.8949Z" fill="#0FAFE9"/>
<path d="M51.1292 32.8712C51.1292 34.5388 50.763 36.022 50.0306 37.3208C49.3145 38.6036 48.2729 39.6058 46.9057 40.3273C45.5549 41.0489 43.9599 41.4097 42.1208 41.4097H35.6025V24.4048H42.1208C43.9762 24.4048 45.5793 24.7576 46.9301 25.4631C48.281 26.1687 49.3145 27.1628 50.0306 28.4456C50.763 29.7284 51.1292 31.2036 51.1292 32.8712ZM41.7546 37.7297C43.3821 37.7297 44.6435 37.3048 45.5386 36.4549C46.45 35.6051 46.9057 34.4105 46.9057 32.8712C46.9057 31.3318 46.45 30.1373 45.5386 29.2874C44.6435 28.4376 43.3821 28.0127 41.7546 28.0127H39.7772V37.7297H41.7546Z" fill="#0FAFE9"/>
<path d="M66.9756 27.9886V41.4097H62.7765V38.9804C62.3859 39.7661 61.8 40.3915 61.0188 40.8565C60.2539 41.3215 59.3587 41.554 58.3334 41.554C56.771 41.554 55.5259 41.0409 54.5982 40.0147C53.6868 38.9884 53.2311 37.5774 53.2311 35.7815V27.9886H57.3813V35.2764C57.3813 36.1904 57.6173 36.9039 58.0893 37.417C58.5775 37.9141 59.2285 38.1626 60.0423 38.1626C60.8886 38.1626 61.5559 37.8981 62.0442 37.3689C62.5324 36.8398 62.7765 36.0861 62.7765 35.108V27.9886H66.9756Z" fill="#0FAFE9"/>
<path d="M74.9477 27.8202C75.9893 27.8202 76.8844 28.0527 77.6331 28.5177C78.3817 28.9828 78.9351 29.6161 79.2932 30.4179V27.9886H83.4434V41.3375C83.4434 42.5882 83.1992 43.7107 82.711 44.7048C82.2227 45.715 81.4741 46.5167 80.465 47.11C79.4559 47.7033 78.2027 48 76.7054 48C74.6547 48 73.0109 47.5189 71.774 46.5568C70.5533 45.6108 69.8209 44.32 69.5768 42.6844H73.7026C73.8328 43.2296 74.1258 43.6545 74.5815 43.9592C75.0534 44.2639 75.6638 44.4162 76.4124 44.4162C77.275 44.4162 77.9667 44.1677 78.4875 43.6706C79.0246 43.1895 79.2932 42.4119 79.2932 41.3375V38.9804C78.9351 39.7822 78.3817 40.4155 77.6331 40.8805C76.8844 41.3455 75.9893 41.578 74.9477 41.578C73.8247 41.578 72.8156 41.3055 71.9205 40.7603C71.0416 40.1991 70.3417 39.3973 69.8209 38.3551C69.3164 37.3128 69.0641 36.0942 69.0641 34.6991C69.0641 33.2881 69.3164 32.0694 69.8209 31.0432C70.3417 30.001 71.0416 29.2072 71.9205 28.6621C72.8156 28.1008 73.8247 27.8202 74.9477 27.8202ZM76.2904 31.4281C75.3952 31.4281 74.671 31.7167 74.1176 32.2939C73.5805 32.8712 73.312 33.6729 73.312 34.6991C73.312 35.7254 73.5805 36.5271 74.1176 37.1044C74.671 37.6816 75.3952 37.9702 76.2904 37.9702C77.1692 37.9702 77.8853 37.6736 78.4387 37.0803C79.0083 36.487 79.2932 35.6933 79.2932 34.6991C79.2932 33.689 79.0083 32.8952 78.4387 32.318C77.8853 31.7247 77.1692 31.4281 76.2904 31.4281Z" fill="#0FAFE9"/>
<path d="M85.8464 24.2124C85.8464 23.5871 86.0743 23.074 86.53 22.6731C86.9857 22.2562 87.5879 22.0477 88.3366 22.0477C89.0852 22.0477 89.6874 22.2562 90.1431 22.6731C90.5988 23.074 90.8267 23.5871 90.8267 24.2124C90.8267 24.8217 90.5988 25.3349 90.1431 25.7518C89.6874 26.1526 89.0852 26.3531 88.3366 26.3531C87.5879 26.3531 86.9857 26.1526 86.53 25.7518C86.0743 25.3349 85.8464 24.8217 85.8464 24.2124ZM90.4117 27.9886V41.4097H86.237V27.9886H90.4117Z" fill="#0FAFE9"/>
<path d="M97.388 38.2589H102.954V41.4097H93.2133V24.4048H97.388V38.2589Z" fill="#0FAFE9"/>
<path d="M109.966 27.8202C111.008 27.8202 111.903 28.0527 112.652 28.5177C113.401 28.9828 113.954 29.6161 114.312 30.4179V27.9886H118.462V41.4097H114.312V38.9804C113.954 39.7822 113.401 40.4155 112.652 40.8805C111.903 41.3455 111.008 41.578 109.966 41.578C108.843 41.578 107.834 41.3055 106.939 40.7603C106.06 40.1991 105.361 39.3973 104.84 38.3551C104.335 37.3128 104.083 36.0942 104.083 34.6991C104.083 33.2881 104.335 32.0694 104.84 31.0432C105.361 30.001 106.06 29.2072 106.939 28.6621C107.834 28.1008 108.843 27.8202 109.966 27.8202ZM111.309 31.4281C110.414 31.4281 109.69 31.7167 109.136 32.2939C108.599 32.8712 108.331 33.6729 108.331 34.6991C108.331 35.7254 108.599 36.5271 109.136 37.1044C109.69 37.6816 110.414 37.9702 111.309 37.9702C112.188 37.9702 112.904 37.6736 113.458 37.0803C114.027 36.487 114.312 35.6933 114.312 34.6991C114.312 33.689 114.027 32.8952 113.458 32.318C112.904 31.7247 112.188 31.4281 111.309 31.4281Z" fill="#0FAFE9"/>
<path d="M129.898 27.8443C131.46 27.8443 132.697 28.3574 133.609 29.3836C134.536 30.4098 135 31.8209 135 33.6168V41.4097H130.826V34.0978C130.826 33.1999 130.582 32.5024 130.093 32.0053C129.621 31.4922 128.987 31.2356 128.189 31.2356C127.343 31.2356 126.667 31.5002 126.163 32.0294C125.675 32.5585 125.43 33.3121 125.43 34.2903V41.4097H121.256V27.9886H125.43V30.4419C125.821 29.6402 126.399 29.0068 127.164 28.5418C127.945 28.0768 128.856 27.8443 129.898 27.8443Z" fill="#0FAFE9"/>
</svg>

<svg width="135" height="48" fill="none" xmlns="http://www.w3.org/2000/svg"><path d="M12.121 20.784c-2.198 0-4.026-1.787-4.026-3.994 0-2.18 1.801-3.994 4.026-3.994 2.199 0 4.027 1.787 4.027 3.994 0 2.207-1.801 3.994-4.027 3.994zm29.669-9.249C41.79 5.203 36.547 0 30.163 0c-6.411 0-11.63 5.203-11.63 11.535v16.869s23.259-2.575 23.259-16.87zM0 33.767c0 4.414 3.63 8.04 8.08 8.04s8.08-3.6 8.08-8.014V22.048c.026 0-16.16 1.787-16.16 11.719zm8.08 2.128a2.117 2.117 0 01-2.12-2.102c0-1.156.954-2.102 2.12-2.102 1.165 0 2.119.946 2.119 2.102.026 1.156-.927 2.102-2.12 2.102zm43.05-3.024c0 1.668-.367 3.151-1.1 4.45-.715 1.283-1.757 2.285-3.124 3.006-1.351.722-2.946 1.083-4.785 1.083h-6.519V24.405h6.519c1.855 0 3.458.353 4.81 1.058 1.35.706 2.384 1.7 3.1 2.983.732 1.282 1.098 2.758 1.098 4.425zm-9.375 4.859c1.627 0 2.889-.425 3.784-1.275.911-.85 1.367-2.044 1.367-3.584s-.456-2.734-1.367-3.584c-.895-.85-2.157-1.274-3.784-1.274h-1.978v9.717h1.978zm25.221-9.741v13.42h-4.2V38.98a4.463 4.463 0 01-1.757 1.877c-.765.465-1.66.697-2.686.697-1.562 0-2.807-.513-3.735-1.54-.911-1.026-1.367-2.437-1.367-4.233V27.99h4.15v7.287c0 .914.236 1.628.708 2.141.489.497 1.14.746 1.953.746.847 0 1.514-.265 2.002-.794.488-.53.733-1.283.733-2.261v-7.12h4.199zm7.972-.169c1.041 0 1.936.233 2.685.698a4.213 4.213 0 011.66 1.9v-2.43h4.15v13.35c0 1.25-.244 2.373-.732 3.367-.488 1.01-1.237 1.812-2.246 2.405-1.01.593-2.262.89-3.76.89-2.05 0-3.694-.481-4.931-1.443-1.22-.946-1.953-2.237-2.197-3.873h4.126c.13.546.423.97.879 1.275.471.305 1.082.457 1.83.457.863 0 1.555-.248 2.075-.745.538-.481.806-1.26.806-2.334V38.98a4.212 4.212 0 01-1.66 1.9c-.749.465-1.644.698-2.685.698-1.123 0-2.132-.273-3.027-.818-.88-.56-1.58-1.363-2.1-2.405-.505-1.042-.757-2.26-.757-3.656 0-1.41.252-2.63.757-3.656.52-1.042 1.22-1.836 2.1-2.38.895-.562 1.904-.843 3.027-.843zm1.342 3.608c-.895 0-1.619.289-2.172.866-.537.577-.806 1.379-.806 2.405 0 1.026.269 1.828.806 2.405.553.578 1.277.866 2.172.866.88 0 1.595-.296 2.149-.89.57-.593.854-1.387.854-2.38 0-1.011-.285-1.805-.854-2.382-.554-.593-1.27-.89-2.149-.89zm9.556-7.216c0-.625.228-1.138.684-1.539.456-.417 1.058-.625 1.807-.625.748 0 1.35.208 1.806.625.456.401.684.914.684 1.54 0 .609-.228 1.122-.684 1.539-.456.4-1.058.601-1.806.601-.75 0-1.351-.2-1.807-.601a2.005 2.005 0 01-.684-1.54zm4.566 3.777v13.42h-4.175V27.99h4.175zm6.976 10.27h5.566v3.15h-9.74V24.406h4.174V38.26zm12.578-10.439c1.042 0 1.937.233 2.686.698a4.21 4.21 0 011.66 1.9v-2.43h4.15V41.41h-4.15v-2.43a4.209 4.209 0 01-1.66 1.9c-.749.465-1.644.698-2.686.698-1.123 0-2.132-.273-3.027-.818-.879-.56-1.578-1.363-2.099-2.405-.505-1.042-.757-2.26-.757-3.656 0-1.41.252-2.63.757-3.656.521-1.042 1.22-1.836 2.099-2.38.895-.562 1.904-.843 3.027-.843zm1.343 3.608c-.895 0-1.619.289-2.173.866-.537.577-.805 1.379-.805 2.405 0 1.026.268 1.828.805 2.405.554.578 1.278.866 2.173.866.879 0 1.595-.296 2.149-.89.569-.593.854-1.387.854-2.38 0-1.011-.285-1.805-.854-2.382-.554-.593-1.27-.89-2.149-.89zm18.589-3.584c1.562 0 2.799.513 3.711 1.54.927 1.026 1.391 2.437 1.391 4.233v7.793h-4.174v-7.312c0-.898-.244-1.596-.733-2.093-.472-.513-1.106-.77-1.904-.77-.846 0-1.522.265-2.026.794-.488.53-.733 1.283-.733 2.261v7.12h-4.174V27.989h4.174v2.453a4.478 4.478 0 011.734-1.9c.781-.465 1.692-.698 2.734-.698z" fill="#0FAFE9"/></svg>
